build/service/ErrorOutline.svg

<svg xmlns="http://www.w3.org/2000/svg" fill="none" viewBox="0 0 24 24" focusable="false"><path d="M0 0H24V24H0z"/><path fill="#74767B" fill-rule="evenodd" d="M12 3C7.02944 3 3 7.02944 3 12C3 16.9706 7.02944 21 12 21C16.9706 21 21 16.9706 21 12C21 7.02944 16.9706 3 12 3ZM4.3 12C4.3 7.74741 7.74741 4.3 12 4.3C16.2526 4.3 19.7 7.74741 19.7 12C19.7 16.2526 16.2526 19.7 12 19.7C7.74741 19.7 4.3 16.2526 4.3 12ZM12.0001 13.6954C12.3591 13.6954 12.6501 13.4043 12.6501 13.0454L12.6501 7.89915C12.6501 7.54016 12.3591 7.24915 12.0001 7.24915C11.6411 7.24915 11.3501 7.54016 11.3501 7.89915L11.3501 13.0454C11.3501 13.4043 11.6411 13.6954 12.0001 13.6954ZM12.8499 15.9009C12.8499 16.3703 12.4693 16.7509 11.9999 16.7509C11.5305 16.7509 11.1499 16.3703 11.1499 15.9009C11.1499 15.4315 11.5305 15.0509 11.9999 15.0509C12.4693 15.0509 12.8499 15.4315 12.8499 15.9009Z"/></svg>

<svg xmlns="http://www.w3.org/2000/svg" fill="none" viewBox="0 0 24 24" focusable="false"><path fill="#74767B" fill-rule="evenodd" d="M12 3c-4.98 0-9 4.02-9 9 0 4.97 4.02 9 9 9a9 9 0 0 0 9-9c0-4.98-4.03-9-9-9m-7.71 9c0-4.26 3.45-7.71 7.71-7.71 4.25 0 7.7 3.45 7.7 7.71 0 4.25-3.45 7.7-7.7 7.7-4.26 0-7.71-3.45-7.71-7.7M12 13.69c.35 0 .64-.29.64-.65V7.89c0-.35-.29-.65-.64-.65-.36 0-.65.3-.65.65v5.15c0 .36.29.65.65.65m.85 2.21a.856.856 0 0 1-1.71 0 .856.856 0 0 1 1.71 0"/></svg>
